assets/shopping.svg

<svg enable-background="new 0 0 583.5 583.5" viewBox="0 0 583.5 583.5" xmlns="http://www.w3.org/2000/svg"><g fill="#114d4d"><path d="m46 563.6c.8 7.8 7.4 13.8 15.2 13.8h24.9 205.6 205.6 24.9c7.9 0 14.4-5.9 15.2-13.8l2.5-24.8 42.9-451.3c.4-4.3-1-8.5-3.8-11.7l-58-64.7c-2.9-3.2-7-5.1-11.4-5.1h-217.9-217.9c-4.3 0-8.5 1.8-11.4 5.1l-58 64.7c-2.9 3.2-4.2 7.4-3.8 11.7l42.9 451.3zm35.6-516.9c2.9-3.2 7-5.1 11.4-5.1h198.8 198.8c4.3 0 8.5 1.8 11.4 5.1l33 36.8h-243.3-243.2zm210.1 80.7h243.3l-36.3 393.2c-.7 7.9-7.3 13.9-15.2 13.9h-191.8-191.6c-7.9 0-14.5-6-15.2-13.9l-36.4-393.2z"/><path d="m522.2 577.9h-461c-8.1 0-14.9-6.1-15.7-14.2l-2.5-24.8-42.9-451.3c-.4-4.4 1-8.8 4-12l58-64.7c3-3.3 7.3-5.2 11.8-5.2h435.8c4.5 0 8.8 1.9 11.8 5.2l58 64.7c2.9 3.3 4.4 7.7 4 12l-42.9 451.3-2.5 24.8c-1 8-7.7 14.2-15.9 14.2zm-448.4-571.3c-4.2 0-8.2 1.8-11 4.9l-58 64.7c-2.8 3.1-4.1 7.2-3.7 11.3l42.9 451.3 2.5 24.8c.8 7.6 7.1 13.3 14.7 13.3h461c7.6 0 14-5.7 14.7-13.3l2.5-24.8 42.9-451.3c.4-4.1-1-8.2-3.7-11.3l-58-64.7c-2.8-3.1-6.8-4.9-11-4.9zm409.6 528.4h-383.3c-8.2 0-15-6.2-15.7-14.3l-36.4-393.8h487.5v.5l-36.3 393.2c-.8 8.2-7.6 14.4-15.8 14.4zm-434.3-407.1 36.3 392.7c.7 7.7 7 13.4 14.7 13.4h383.3c7.7 0 14-5.8 14.7-13.4l36.3-392.7zm487-43.9h-488.7l33.8-37.7c3-3.3 7.3-5.2 11.8-5.2h397.6c4.5 0 8.8 1.9 11.8 5.2zm-486.5-1h484.2l-32.3-36c-2.8-3.1-6.8-4.9-11-4.9h-397.5c-4.2 0-8.2 1.8-11 4.9z"/><path d="m291.7 378c35.8 0 69.5-13.9 94.8-39.3 25.3-25.3 39.3-59 39.3-94.8 0-11.8-9.6-21.4-21.4-21.4s-21.4 9.6-21.4 21.4c0 50.3-40.9 91.2-91.2 91.2s-91.2-40.9-91.2-91.2c0-11.8-9.6-21.4-21.4-21.4s-21.4 9.6-21.4 21.4c0 35.8 13.9 69.5 39.3 94.8 25.2 25.3 58.8 39.3 94.6 39.3z"/><path d="m291.7 378.5c-35.9 0-69.7-14-95.1-39.4s-39.4-59.2-39.4-95.1c0-12.1 9.8-21.9 21.9-21.9s21.9 9.8 21.9 21.9c0 50 40.7 90.7 90.7 90.7s90.7-40.7 90.7-90.7c0-12.1 9.8-21.9 21.9-21.9s21.9 9.8 21.9 21.9c0 35.9-14 69.7-39.4 95.1-25.3 25.4-59.1 39.4-95.1 39.4zm-112.6-155.5c-11.5 0-20.9 9.4-20.9 20.9 0 35.7 13.9 69.2 39.1 94.4s58.8 39.1 94.4 39.1 69.2-13.9 94.4-39.1 39.1-58.8 39.1-94.4c0-11.5-9.4-20.9-20.9-20.9s-20.9 9.4-20.9 20.9c0 50.6-41.1 91.7-91.7 91.7s-91.7-41.1-91.7-91.7c.1-11.5-9.3-20.9-20.9-20.9z"/></g></svg>

<?xml version="1.0" encoding="utf-8"?>
<!-- Generator: Adobe Illustrator 25.4.1, SVG Export Plug-In . SVG Version: 6.00 Build 0)  -->
<svg version="1.1" id="Capa_1" xmlns="http://www.w3.org/2000/svg" xmlns:xlink="http://www.w3.org/1999/xlink" x="0px" y="0px"
	 viewBox="0 0 583.5 583.5" style="enable-background:new 0 0 583.5 583.5;" xml:space="preserve">
<style type="text/css">
	.st0{fill:#114D4D;}
</style>
<g>
	<g>
		<path class="st0" d="M46,563.6c0.8,7.8,7.4,13.8,15.2,13.8h24.9h205.6h205.6h24.9c7.9,0,14.4-5.9,15.2-13.8l2.5-24.8l42.9-451.3
			c0.4-4.3-1-8.5-3.8-11.7l-58-64.7c-2.9-3.2-7-5.1-11.4-5.1H291.7H73.8c-4.3,0-8.5,1.8-11.4,5.1l-58,64.7
			c-2.9,3.2-4.2,7.4-3.8,11.7l42.9,451.3L46,563.6z M81.6,46.7c2.9-3.2,7-5.1,11.4-5.1h198.8h198.8c4.3,0,8.5,1.8,11.4,5.1l33,36.8
			H291.7H48.5L81.6,46.7z M291.7,127.4H535l-36.3,393.2c-0.7,7.9-7.3,13.9-15.2,13.9H291.7H100.1c-7.9,0-14.5-6-15.2-13.9
			L48.5,127.4H291.7L291.7,127.4z"/>
		<path class="st0" d="M522.2,577.9h-461c-8.1,0-14.9-6.1-15.7-14.2L43,538.9L0.1,87.6c-0.4-4.4,1-8.8,4-12l58-64.7
			c3-3.3,7.3-5.2,11.8-5.2h435.8c4.5,0,8.8,1.9,11.8,5.2l58,64.7c2.9,3.3,4.4,7.7,4,12l-42.9,451.3l-2.5,24.8
			C537.1,571.7,530.4,577.9,522.2,577.9z M73.8,6.6c-4.2,0-8.2,1.8-11,4.9l-58,64.7C2,79.3,0.7,83.4,1.1,87.5L44,538.8l2.5,24.8
			c0.8,7.6,7.1,13.3,14.7,13.3h461c7.6,0,14-5.7,14.7-13.3l2.5-24.8l42.9-451.3c0.4-4.1-1-8.2-3.7-11.3l-58-64.7
			c-2.8-3.1-6.8-4.9-11-4.9L73.8,6.6L73.8,6.6z M483.4,535H100.1c-8.2,0-15-6.2-15.7-14.3L48,126.9h487.5l0,0.5l-36.3,393.2
			C498.4,528.8,491.6,535,483.4,535z M49.1,127.9l36.3,392.7c0.7,7.7,7,13.4,14.7,13.4h383.3c7.7,0,14-5.8,14.7-13.4l36.3-392.7
			C534.4,127.9,49.1,127.9,49.1,127.9z M536.1,84H47.4l33.8-37.7c3-3.3,7.3-5.2,11.8-5.2h397.6c4.5,0,8.8,1.9,11.8,5.2L536.1,84z
			 M49.6,83h484.2l-32.3-36c-2.8-3.1-6.8-4.9-11-4.9H93c-4.2,0-8.2,1.8-11,4.9L49.6,83z"/>
	</g>
	<g>
		<path class="st0" d="M291.7,378c35.8,0,69.5-13.9,94.8-39.3c25.3-25.3,39.3-59,39.3-94.8c0-11.8-9.6-21.4-21.4-21.4
			c-11.8,0-21.4,9.6-21.4,21.4c0,50.3-40.9,91.2-91.2,91.2s-91.2-40.9-91.2-91.2c0-11.8-9.6-21.4-21.4-21.4s-21.4,9.6-21.4,21.4
			c0,35.8,13.9,69.5,39.3,94.8C222.3,364,255.9,378,291.7,378z"/>
		<path class="st0" d="M291.7,378.5c-35.9,0-69.7-14-95.1-39.4s-39.4-59.2-39.4-95.1c0-12.1,9.8-21.9,21.9-21.9
			c12.1,0,21.9,9.8,21.9,21.9c0,50,40.7,90.7,90.7,90.7s90.7-40.7,90.7-90.7c0-12.1,9.8-21.9,21.9-21.9s21.9,9.8,21.9,21.9
			c0,35.9-14,69.7-39.4,95.1C361.5,364.5,327.7,378.5,291.7,378.5z M179.1,223c-11.5,0-20.9,9.4-20.9,20.9
			c0,35.7,13.9,69.2,39.1,94.4c25.2,25.2,58.8,39.1,94.4,39.1s69.2-13.9,94.4-39.1c25.2-25.2,39.1-58.8,39.1-94.4
			c0-11.5-9.4-20.9-20.9-20.9c-11.5,0-20.9,9.4-20.9,20.9c0,50.6-41.1,91.7-91.7,91.7S200,294.5,200,243.9
			C200.1,232.4,190.7,223,179.1,223z"/>
	</g>
</g>
</svg>
